X: 43524
T: Yn Mheillea
R: jig
M: 6/8
K: Gmajor
D|D2G G2A|B3 G3|c2B A2G|F3 D3|
D2G G2A|B3 G3|A3 B2c|d3d3|
d2e d2c|B3 G3|c2B A2G|F3 D3|
G2A B2G|E3 A2G|F2D E2F|G3G2:|
D|D3 G2F|E3 A2G|F2D E2F|G3G2||

